resources/haticons/SVG/box-remove.svg

<!-- Generated by IcoMoon.io -->
<svg version="1.1" xmlns="http://www.w3.org/2000/svg" width="24" height="24" viewBox="0 0 24 24">
<title>box-remove</title>
<path d="M19.5 1.5h-15l-4.5 4.5v15.75c0 0.414 0.336 0.75 0.75 0.75h22.5c0.414 0 0.75-0.336 0.75-0.75v-15.75l-4.5-4.5zM15 15v4.5h-6v-4.5h-4.5l7.5-6 7.5 6h-4.5zM3.621 4.5l1.5-1.5h13.757l1.5 1.5h-16.757z"></path>
</svg>

<svg xmlns="http://www.w3.org/2000/svg" width="24" height="24"><path d="M19.5 1.5h-15L0 6v15.75c0 .414.336.75.75.75h22.5a.75.75 0 0 0 .75-.75V6l-4.5-4.5zM15 15v4.5H9V15H4.5L12 9l7.5 6H15zM3.621 4.5l1.5-1.5h13.757l1.5 1.5H3.621z"/></svg>
